imgs/404.svg

<svg height="68" viewBox="0 0 135 68" width="135" xmlns="http://www.w3.org/2000/svg"><path d="m726.671875 488.1875c13.324219 0 16.699219-13.148438 16.699219-25.488281l-.004272-.743525c-.140417-12.159114-3.784869-24.955694-17.187134-24.955694-14.595469 0-16.654181 14.157605-16.764567 24.664995l-.004965.963911c0 10.511719 1.863282 25.558594 17.261719 25.558594zm-.210937-8.402344c-8.050782 0-8.296876-9.210937-8.296876-17.15625l.004036-1.417563c.050949-7.598616.699089-15.633218 8.01159-15.633218 7.769531 0 7.980468 9 7.980468 16.980469l-.004804 1.693163c-.053132 7.409436-.67572 15.533399-7.694414 15.533399zm53.367187-12.09375v-29.882812h-7.488281l-24.257813 32.835937v5.167969h22.957031v11.671875h8.789063v-11.671875h7.910156v-8.121094zm-85.4375-29.441406v41.390625h10.640625v9.234375h-10.640625v15.609375h-9.890625v-15.609375h-31.5v-6l32.8125-44.625zm-9.890625 15.234375-18.609375 26.15625h18.609375zm86.539062-2.035156v16.242187h-11.53125z" fill="#fff" transform="translate(-653 -437)"/></svg>

<?xml version="1.0" encoding="UTF-8"?>
<svg width="135px" height="68px" viewBox="0 0 135 68" version="1.1" xmlns="http://www.w3.org/2000/svg" xmlns:xlink="http://www.w3.org/1999/xlink">
    <!-- Generator: Sketch 58 (84663) - https://sketch.com -->
    <title>04</title>
    <desc>Created with Sketch.</desc>
    <g id="Page-1" stroke="none" stroke-width="1" fill="none" fill-rule="evenodd">
        <g id="Desktop-HD-Copy-2" transform="translate(-653.000000, -437.000000)" fill="#FFFFFF" fill-rule="nonzero">
            <path d="M726.671875,488.1875 C739.996094,488.1875 743.371094,475.039062 743.371094,462.699219 L743.366822,461.955694 C743.226405,449.79658 739.581953,437 726.179688,437 C711.584219,437 709.525507,451.157605 709.415121,461.664995 L709.410156,462.628906 C709.410156,473.140625 711.273438,488.1875 726.671875,488.1875 Z M726.460938,479.785156 C718.410156,479.785156 718.164062,470.574219 718.164062,462.628906 L718.168098,461.211343 C718.219047,453.612727 718.867187,445.578125 726.179688,445.578125 C733.949219,445.578125 734.160156,454.578125 734.160156,462.558594 L734.155352,464.251757 C734.10222,471.661193 733.479632,479.785156 726.460938,479.785156 Z M779.828125,467.691406 L779.828125,437.808594 L772.339844,437.808594 L748.082031,470.644531 L748.082031,475.8125 L771.039062,475.8125 L771.039062,487.484375 L779.828125,487.484375 L779.828125,475.8125 L787.738281,475.8125 L787.738281,467.691406 L779.828125,467.691406 Z M694.390625,438.25 L694.390625,479.640625 L705.03125,479.640625 L705.03125,488.875 L694.390625,488.875 L694.390625,504.484375 L684.5,504.484375 L684.5,488.875 L653,488.875 L653,482.875 L685.8125,438.25 L694.390625,438.25 Z M684.5,453.484375 L665.890625,479.640625 L684.5,479.640625 L684.5,453.484375 Z M771.039062,451.449219 L771.039062,467.691406 L759.507812,467.691406 L771.039062,451.449219 Z" id="04"></path>
        </g>
    </g>
</svg>
